X: 1
T: YELLOW STOCKINGS' -- JIG
B: Ryan's Mammoth Collection of Fiddle Tunes
R: jig
M: 9/8
L: 1/8
Z: Contributed 20010526025708 by John Chambers jc:trillian.mit.edu
K: D
(uB/c/) \
|: d2f (dB)B (dB)B | d2f (dB)B cBA | d2f (dB)B (dB)B | cde efd cBA :|
|: d2g (fd)a (fd)a | d2g (fd)a gfe | d2g (fd)a (fd)a | g2e efd cBA :|
